X:9
T:"Kurt Valsen"- Valse/Walzer/Waltz
S:K.Bauer CD Transkription?
Z:abc transcription Simon Wascher
N:please mail errors to simon.wascher@chello.at
M:3/4
L:1/4
K:Gm
D|G/^F/G/A/B/c/|d>dd|edc|g>fe|
d>cB|A>BA|1GG/A/B|A2:|2GG/^F/G/A/|G2||
|:d|dgg|f>ec|c/d/ee|d>BG|
G/A/BB|A>^FD|D/c/BA|G/^F/G/A/B/c/|
dgg|f>ec|c/d/ee|d>BG|G/A/BB|A>^FD|D/c/BA|G2:|


